X: 1
T: In the Bleak Midwinter
R: jig (originally 4/4)
Z: 2008 John Chambers <jc:trillian.mit.edu>
M: 6/8
L: 1/8
K: F
[| "F"A2B c2A | "Dm"G3 F3 | "Gm"G2A     G2D | "C7"G6 \
|  "F"A2B c2A | "Dm"G3 F3 | "Gm"G2A "C7"G2F |  "F"F6 |]
[|"Bb"B2A B2c | "Dm"d3 A3 |  "F"c2A "Bb"G2F | "C7"E6 \
|  "F"A2B c2A | "Dm"G3 F3 | "Gm"G2A "C7"G2F |  "F"F6 |]
